X:1
T:My Reward
T:My Reward
T:J. M. Pierce
T:Nina Clarke, 1906
T:Public Domain Courtesy of the Cyber Hymnal™
T:Public Domain Courtesy of the Cyber Hymnal™
C:J. M. Pierce
Z:Public Domain
Z:Courtesy of the Cyber Hymnal™
%%score ( 1 2 ) ( 3 4 )
L:1/8
Q:1/4=93
M:4/4
K:Bb
V:1 treble 
V:2 treble 
V:3 bass 
V:4 bass 
V:1
 [DF] | [DF][DF][DF][DF] [DF] [DB]2 [DB] | [Fd]2 [Ec]2 [DB]3 [FA] | %3
w: 1.~I’ll|wear a crown of glo- ry When|I get home; I’ll|
w: 2.~All|dark- ness will be end- ed When|I get home; But|
w: 3.~There’ll|be no time for weep- ing When|I get home, But|
 [EG][EG][EG][EG] [EG] [=Ec]2 [EB] | [FA]2 [=EG]2 F3 [DF] | [DB][DB][DB][DB] [Fd] [DB]2 [FA] | %6
w: sing the won- drous sto- ry When|I get home; The|Sav- ior there will greet me; He’ll|
w: light and love be blend- ed When|I get home; I’ll|ne- ver know a sor- row, When|
w: be a bless- èd reap- ing When|I get home; For|Je- sus there will bless me, And|
 [EG][EG][EG][EG] [EG] [Gc]2 [GB] | [FA][FA][FA][FA] [FA] [EA]2 [EG] | [DF]2 [EA]2 [DB]3 || %9
w: be the first to meet me, And|by His side will seat me, When|I get home.|
w: comes that glor- ious mor- row, But|joy- ful songs for- ev- er, When|I get home.|
w: lov- ing- ly ca- ress me, And|no- thing will dis- tress me, When|I get home.|
"^Refrain" [DB] | d2 d2 d3 [^Fc] | B2 B2 B3 [EG] | [DF][DF][DF][DF] [DB] [FB]2 [Fc] | %13
w: ||||
w: When|I get home, When|I get home, I’ll|sing the won- drous sto- ry, When|
w: ||||
 [Fd]2 [Fd]2 [Fc]3 [DB] | d2 d2 d3 [^Fc] | B2 B2 B3 [EG] | [DF][DF][FB][Gc] [Fd] [Fd]2 [DB] | %17
w: ||||
w: I get home; When|I get home to|glo- ry, I’ll sing|the won- drous sto- ry, I’ll sing|
w: ||||
 d2 c2 [DB]3 |] %18
w: |
w: the won- drous|
w: |
V:2
 x | x8 | x8 | x8 | x4 F3 x | x8 | x8 | x8 | x7 || x | (^FF) (FF) (F F2) x | (GG) (GG) (G G2) x | %12
 x8 | x8 | ^FFFF F F2 x | GGGG G G2 x | x8 | (FF) (FE) x3 |] %18
V:3
 [B,,F,] | [B,,B,][B,,B,][B,,B,][B,,B,] [B,,B,] [B,,F,]2 [B,,B,] | %2
 [F,B,]2 [F,A,]2 [B,,B,]3 [D,B,] | [E,B,][E,B,][E,B,][E,B,] [E,B,] [C,B,]2 [C,D] | %4
 [C,C]2 [C,B,]2 [F,A,]3 [B,,B,] | [B,,B,][B,,B,][B,,B,][B,,B,] [B,,B,] [B,,B,]2 [D,B,] | %6
 [E,B,][E,B,][E,B,][E,B,] [E,B,] [E,E]2 [E,E] | [F,C][F,C][F,C][F,C] [F,C] [F,C]2 [F,B,] | %8
 [F,B,]2 [F,C]2 [B,,B,]3 || B, | B,B,B,B, B, B,2 [D,B,] | %11
 ([E,B,][E,B,]) ([E,E][E,E]) ([E,E] [E,E]2) [E,B,] | %12
 [B,,B,][B,,B,][B,,B,][B,,B,] [B,,B,] [D,B,]2 [F,A,] | B,2 B,2 [F,A,]3 B, | %14
 B,B,B,B, B, B,2 [D,B,] | [E,B,][E,B,][E,E][E,E] [E,E] [E,E]2 [E,B,] | %16
 [B,,B,][B,,B,][D,B,][E,B,] [F,B,] [F,B,]2 [G,B,] | (B,B,) (A,A,) [B,,B,]3 |] %18
V:4
 x | x8 | x8 | x8 | x8 | x8 | x8 | x8 | x7 || B, | (B,B,) (B,B,) (B, B,2) x | x8 | x8 | %13
 B,2 B,2 x B, x2 | B,B,B,B, B, B,2 x | x8 | x8 | F,2 F,2 x3 |] %18

